app/img/step-3/var-3.svg

<svg width="90" height="90" viewBox="0 0 90 90" fill="none" xmlns="http://www.w3.org/2000/svg">
<g clip-path="url(#clip0)">
<path d="M32.3674 61.1845C32.3674 45.1285 45.499 32.1395 61.6083 32.3712C77.2126 32.5956 89.901 45.3927 89.9998 60.9982C90.055 69.7377 86.2186 77.5812 80.1227 82.9014C79.4793 83.4629 79.5719 84.4875 80.3069 84.9224L85.7368 88.135C86.6146 88.6544 86.246 90.0002 85.2261 89.9998L60.6383 89.9938C44.9752 89.7029 32.3674 76.9169 32.3674 61.1845Z" fill="#697C86"/>
<path d="M85.7362 88.1352L80.3063 84.9226C79.5713 84.4879 79.4789 83.4631 80.1221 82.9017C86.218 77.5815 90.0546 69.7377 89.9994 60.9984C89.9008 45.3929 77.2122 32.5959 61.6079 32.3714C60.5458 32.3561 59.4971 32.3999 58.4639 32.4965C73.0015 33.8676 84.473 46.1634 84.5667 60.9984C84.6219 69.7379 80.7855 77.5815 74.6894 82.9017C74.046 83.4631 74.1386 84.4877 74.8736 84.9226L80.3035 88.1352C81.1764 88.6518 80.8162 89.9846 79.8088 89.9988L85.2255 90C86.2454 90.0002 86.6138 88.6544 85.7362 88.1352Z" fill="#465A61"/>
<path d="M62.286 32.3894C62.0607 32.3808 61.8346 32.3743 61.608 32.3712C45.4987 32.1393 32.3672 45.1285 32.3672 61.1845C32.3672 61.5526 32.3763 61.9184 32.39 62.283C48.1244 60.622 60.6256 48.1238 62.286 32.3894Z" fill="#465A61"/>
<path d="M57.6325 28.816C57.6325 12.76 44.5009 -0.228994 28.3917 0.00268563C12.7876 0.227334 0.0991326 13.0244 0.000343574 28.6299C-0.0548517 37.3694 3.78157 45.2129 9.87749 50.5331C10.5209 51.0946 10.4282 52.1192 9.69327 52.5541L4.26339 55.7667C3.38554 56.2861 3.75415 57.6319 4.77403 57.6315L29.3618 57.6255C45.0248 57.3344 57.6325 44.5485 57.6325 28.816Z" fill="#FDBF00"/>
<path d="M28.3922 0.0029908C27.6217 0.014065 26.8586 0.0569556 26.1037 0.128147C40.7429 1.49871 52.2003 13.8187 52.2003 28.8164C52.2003 44.5488 39.5924 57.3347 23.9296 57.6258L4.75854 57.6306C4.76399 57.6306 4.76892 57.632 4.77454 57.632L29.3623 57.626C45.0251 57.3349 57.633 44.549 57.633 28.8165C57.6328 12.7603 44.5015 -0.228689 28.3922 0.0029908Z" fill="#FF9F00"/>
<path d="M28.8164 51.358C30.4876 51.358 31.8423 50.0033 31.8423 48.3321C31.8423 46.661 30.4876 45.3062 28.8164 45.3062C27.1453 45.3062 25.7905 46.661 25.7905 48.3321C25.7905 50.0033 27.1453 51.358 28.8164 51.358Z" fill="white"/>
<path d="M28.8161 39.8809C27.316 39.8809 26.0998 38.6647 26.0998 37.1646V27.4913C26.0998 25.9912 27.316 24.775 28.8161 24.775C30.6246 24.775 32.3073 24.0514 33.5547 22.7377C34.8011 21.4249 35.4355 19.7031 35.3415 17.8893C35.165 14.4916 32.3587 11.7763 28.9525 11.7077C25.6359 11.6406 22.8013 14.0562 22.3451 17.3259C22.3031 17.6265 22.2818 17.9341 22.2818 18.2406C22.2818 19.7408 21.0656 20.957 19.5655 20.957C18.0654 20.957 16.8491 19.7408 16.8491 18.2406C16.8491 17.6836 16.888 17.123 16.9646 16.5748C17.7896 10.6625 22.8622 6.2738 28.8172 6.2738C28.8988 6.2738 28.9801 6.27468 29.0617 6.27626C35.3019 6.40195 40.4432 11.3794 40.7666 17.6078C40.9389 20.9243 39.7766 24.0746 37.4943 26.4785C35.8778 28.1811 33.7906 29.3618 31.5325 29.8921V37.1647C31.5325 38.6647 30.3164 39.8809 28.8161 39.8809Z" fill="white"/>
<path d="M61.1836 64.2099C62.8548 64.2099 64.2095 62.8552 64.2095 61.184C64.2095 59.5129 62.8548 58.1581 61.1836 58.1581C59.5125 58.1581 58.1577 59.5129 58.1577 61.184C58.1577 62.8552 59.5125 64.2099 61.1836 64.2099Z" fill="white"/>
<path d="M74.7649 64.2099C76.4361 64.2099 77.7908 62.8552 77.7908 61.184C77.7908 59.5129 76.4361 58.1581 74.7649 58.1581C73.0938 58.1581 71.739 59.5129 71.739 61.184C71.739 62.8552 73.0938 64.2099 74.7649 64.2099Z" fill="white"/>
<path d="M47.6021 64.2099C49.2732 64.2099 50.628 62.8552 50.628 61.184C50.628 59.5129 49.2732 58.1581 47.6021 58.1581C45.9309 58.1581 44.5762 59.5129 44.5762 61.184C44.5762 62.8552 45.9309 64.2099 47.6021 64.2099Z" fill="white"/>
</g>
<defs>
<clipPath id="clip0">
<rect width="90" height="90" fill="white"/>
</clipPath>
</defs>
</svg>

<svg width="90" height="90" fill="none" xmlns="http://www.w3.org/2000/svg"><g clip-path="url(#clip0)"><path d="M32.367 61.184c0-16.055 13.132-29.044 29.241-28.813C77.213 32.596 89.901 45.393 90 60.998c.055 8.74-3.781 16.583-9.877 21.903a1.251 1.251 0 00.184 2.021l5.43 3.213c.878.52.509 1.865-.51 1.865l-24.589-.006c-15.663-.291-28.27-13.077-28.27-28.81z" fill="#697C86"/><path d="M85.736 88.135l-5.43-3.212a1.251 1.251 0 01-.184-2.021c6.096-5.32 9.933-13.164 9.877-21.904-.098-15.605-12.787-28.402-28.391-28.627a29.235 29.235 0 00-3.144.125C73 33.868 84.473 46.163 84.567 60.998c.055 8.74-3.781 16.584-9.878 21.904a1.251 1.251 0 00.185 2.02l5.43 3.213c.872.517.512 1.85-.495 1.864l5.416.001c1.02 0 1.389-1.346.511-1.865z" fill="#465A61"/><path d="M62.286 32.39a27.715 27.715 0 00-.678-.019c-16.11-.232-29.24 12.758-29.24 28.813 0 .369.008.734.022 1.099 15.734-1.661 28.236-14.16 29.896-29.894z" fill="#465A61"/><path d="M57.633 28.816C57.633 12.76 44.5-.229 28.392.003 12.788.227.099 13.024 0 28.63c-.055 8.74 3.782 16.583 9.877 21.903.644.562.551 1.586-.184 2.021l-5.43 3.213c-.877.52-.509 1.865.511 1.864l24.588-.005c15.663-.292 28.27-13.078 28.27-28.81z" fill="#FDBF00"/><path d="M28.392.003c-.77.011-1.533.054-2.288.125C40.743 1.498 52.2 13.818 52.2 28.816c0 15.733-12.608 28.519-28.27 28.81l-19.171.005.016.001 24.587-.006c15.663-.291 28.271-13.077 28.271-28.81 0-16.056-13.132-29.045-29.24-28.813z" fill="#FF9F00"/><path d="M28.816 51.358a3.026 3.026 0 100-6.052 3.026 3.026 0 000 6.052zM28.816 39.88a2.716 2.716 0 01-2.716-2.715V27.49c0-1.5 1.216-2.716 2.716-2.716a6.476 6.476 0 004.739-2.037 6.488 6.488 0 001.787-4.849c-.177-3.397-2.983-6.113-6.39-6.181a6.53 6.53 0 00-6.67 6.533 2.716 2.716 0 01-5.433 0c0-.557.039-1.118.116-1.666.825-5.912 5.897-10.301 11.852-10.301.082 0 .163 0 .245.002 6.24.126 11.381 5.103 11.705 11.332a11.87 11.87 0 01-3.273 8.87 12.025 12.025 0 01-5.962 3.414v7.273c0 1.5-1.216 2.716-2.716 2.716zM61.184 64.21a3.026 3.026 0 100-6.052 3.026 3.026 0 000 6.052zM74.765 64.21a3.026 3.026 0 100-6.052 3.026 3.026 0 000 6.052zM47.602 64.21a3.026 3.026 0 100-6.052 3.026 3.026 0 000 6.052z" fill="#fff"/></g><defs><clipPath id="clip0"><path fill="#fff" d="M0 0h90v90H0z"/></clipPath></defs></svg>
